X: 28668
T: Musical Tour Of Ireland, The
R: hornpipe
M: 4/4
K: Dmajor
|:(3fga|bafe dBAF|ABAF A2de|f2df e2de|(3fed af e2 (3fga|
bafe dBAF|ABAF A2de|fdaf edBc|dBAF D2:|
|:FA|Bdcd Bdcd|f2ef d3e|fa (3aba fa (3aba|bafa b2de|
f2ef d2ed|afge fd (3edc|BAFE FABc|BAFE D2:|

